!!!OTL: Into Yam
!!!XEN: My Man
!!!CNT: African -- sub-Saharan -- Xhosa
**kern
*k[]
*M4/4
*MM144
8e
8c
8c
8G
4c
=1
8c
8c
8e
[8c
4c]
8d
8c
=2
8A
[8A
4A]
4c
8c
8c
=3
4d
4c
4G
8c
8c
=4
4c
!! Repeat from beginning.
8e
8c
8c
8G
4c
=5
8c
8c
8e
[8c
4c]
8d
8c
=6
8A
[8A
4A]
4c
8c
8c
=7
4d
4c
4G
8c
8c
=8
4c
!! Continuing.
2b-
8g
8g
=9
8g
8g
(8a
[8a
4a)]
8a
8g
=10
8f
[8f
4f]
4a
8g
8f
=11
8g
[8g
4g]
4b-
8g
8g
=12
4g
8b-
8g
8g
8g
4g
=13
4b-
8g
8g
4g
8a
8g
=14
8f
[8f
4f]
4a
8g
8f
=15
4g
4g
4f
8g
8g
=16
4g
8e
8c
4c
4r
=17
4r
8e
8c
4c
4r
=18
4r
8c
8d
8A
[8c
4c]
=19
4r
8e
8c
4c
4r
=20
4r
8e
8c
4c
4r
=21
4r
8e
8c
4c
4r
=22
4r
8c
8d
8A
[8c
4c]
=23
4r
8e
8c
4c
4r
=24
4r
4g
(8g
8cc)
4g
=25
4g
4b-
4b-
8g
8g
!! page 52
=26
4f
(4a
8b-
8a)
4g
=27
4g
4b-
4a
8g
8g
=28
4g
(4g
8g
8cc)
4g
=29
4g
4b-
4b-
8g
8g
=30
4f
(4a
8b-
8a)
4g
=31
4g
4b-
4a
8g
8g
=32
4g
4r
4r
4g
=33
4cc
4g
4b-
8g
8g
=34
2f
4r
4a
=35
4b-
8g
8g
4g
8f
8g
=36
2.g
4g
=37
4cc
4g
4b-
8g
8g
=38
2f
4r
4a
=39
4b-
8g
8g
4g
8f
8g
=40
[1g
=41
4g]
==
*-
!!!OPR: Miriam Makeba, "The World of African Song"
!!!PPP: Chicago
!!!PPR: Quadrangle Press (12 East Delaware Place)
!!!PDT: 1971///
!!!PPG: 51-52
!!!ENC: David Huron
!!!EMD: 1998/9/29/ Paul von Hippel updated this file in the following ways:
!!!EMD:  (1) changed the representation of slurs from curly braces to parentheses 
!!!EMD:  (2) changed freeform comments into reference records and tandem interpretations
!!!EMD:  (3) changed final barline from triple (===) to double (==)
!!!EMD:  (4) added key signature from printed source
!!!EEV: Version 2.0
